client/src/assets/Edit_Modal.svg

<svg width="138" height="130" viewBox="0 0 138 130" fill="none" xmlns="http://www.w3.org/2000/svg">
<path d="M30.5547 16.6377C23.5353 42.6038 5.26136 56.7982 1.87803 69.3127C-1.50531 81.8271 -1.41587 110.049 56.1475 125.612C113.711 141.175 131.716 108.108 135.434 94.3416C152.86 29.8949 42.9875 -29.3523 30.5547 16.6377Z" fill="#EFEFEF"/>
<path d="M102.678 43.1056L90.9337 54.8889L77.167 41.1223L88.9503 29.3778C91.2059 27.0834 94.9003 27.0834 97.1948 29.3778L102.678 34.8611C104.973 37.1556 104.973 40.85 102.678 43.1056Z" fill="#F3F3F1"/>
<path d="M83.9725 45.0112L95.7559 33.2667C96.7748 32.2284 98.097 31.7267 99.4464 31.6295L97.1948 29.3778C94.9003 27.0834 91.2059 27.0834 88.9503 29.3778L77.167 41.1223L90.9336 54.8889L92.3881 53.4267L83.9725 45.0112Z" fill="#D5DBE1"/>
<path d="M90.934 54.8889L49.0895 96.7333L31.084 100.972L35.3229 82.9666L77.1673 41.1222L90.934 54.8889Z" fill="#2FDF84"/>
<path d="M42.1284 86.8555L82.5145 46.4694L77.1673 41.1222L35.3229 82.9666L31.084 100.972L39.2584 99.0472L42.1284 86.8555Z" fill="#00B871"/>
<path d="M51.0146 17.7189H58.7924V21.6078H51.0146V17.7189Z" fill="#A4AFC1"/>
<path d="M28.6533 17.7189H36.4311V21.6078H28.6533V17.7189Z" fill="#A4AFC1"/>
<path d="M42.2646 4.10779H46.1535V11.8856H42.2646V4.10779Z" fill="#A4AFC1"/>
<path d="M42.2646 26.4689H46.1535V34.2467H42.2646V26.4689Z" fill="#A4AFC1"/>
<path d="M20.8909 121.389C17.6748 121.389 15.0576 118.772 15.0576 115.556C15.0576 112.339 17.6748 109.722 20.8909 109.722C24.1071 109.722 26.7243 112.339 26.7243 115.556C26.7243 118.772 24.1071 121.389 20.8909 121.389ZM20.8909 113.611C19.8176 113.611 18.9465 114.482 18.9465 115.556C18.9465 116.629 19.8176 117.5 20.8909 117.5C21.9643 117.5 22.8354 116.629 22.8354 115.556C22.8354 114.482 21.9643 113.611 20.8909 113.611Z" fill="#A4AFC1"/>
<path d="M60.25 98.0557H112.75V103.889H60.25V98.0557Z" fill="black"/>
<path d="M31.0837 103.889C30.3176 103.889 29.5748 103.59 29.0226 103.033C28.307 102.318 28.0154 101.287 28.2448 100.303L32.4837 82.3173C32.6081 81.7884 32.8765 81.3062 33.2615 80.9251L86.8854 27.3012C90.1831 23.9995 95.9542 23.9917 99.2598 27.3012L104.759 32.8001C106.411 34.4529 107.321 36.6501 107.321 38.9873C107.321 41.3245 106.411 43.5256 104.759 45.1745L51.1348 98.7945C50.7498 99.1795 50.2676 99.4479 49.7426 99.5723L31.7565 103.811C31.5309 103.866 31.3054 103.889 31.0837 103.889ZM37.9709 84.4601L35.0037 97.0523L47.5959 94.0851L100.633 41.0484C101.185 40.4962 101.488 39.7651 101.488 38.9873C101.488 38.2095 101.185 37.4745 100.633 36.9262L95.1337 31.4234C94.0331 30.3229 92.1081 30.3229 91.0115 31.4234L37.9709 84.4601Z" fill="black"/>
<path d="M75.1045 43.1937L79.2293 39.0689L92.9786 52.8182L88.8538 56.943L75.1045 43.1937Z" fill="black"/>
</svg>

<svg width="138" height="130" fill="none" xmlns="http://www.w3.org/2000/svg"><path d="M30.555 16.638C23.535 42.604 5.26 56.798 1.878 69.313c-3.383 12.514-3.294 40.736 54.27 56.299 57.563 15.563 75.568-17.504 79.286-31.27C152.86 29.895 42.987-29.352 30.554 16.638z" fill="#EFEFEF"/><path d="M102.678 43.106L90.934 54.889 77.167 41.122 88.95 29.378c2.256-2.295 5.95-2.295 8.245 0l5.483 5.483c2.295 2.295 2.295 5.989 0 8.245z" fill="#F3F3F1"/><path d="M83.972 45.011l11.784-11.744c1.019-1.039 2.341-1.54 3.69-1.638l-2.251-2.251c-2.295-2.295-5.99-2.295-8.245 0L77.167 41.122 90.934 54.89l1.454-1.462-8.416-8.416z" fill="#D5DBE1"/><path d="M90.934 54.889L49.09 96.733l-18.006 4.239 4.239-18.005 41.844-41.845L90.934 54.89z" fill="#2FDF84"/><path d="M42.128 86.856l40.386-40.387-5.347-5.347-41.844 41.845-4.239 18.005 8.174-1.925 2.87-12.191z" fill="#00B871"/><path d="M51.015 17.719h7.777v3.889h-7.777v-3.89zM28.653 17.719h7.778v3.889h-7.778v-3.89zM42.265 4.108h3.889v7.778h-3.89V4.108zM42.265 26.469h3.889v7.778h-3.89v-7.778zM20.89 121.389a5.84 5.84 0 01-5.832-5.833 5.84 5.84 0 015.833-5.834 5.84 5.84 0 015.833 5.834 5.84 5.84 0 01-5.833 5.833zm0-7.778a1.945 1.945 0 10.002 3.89 1.945 1.945 0 00-.001-3.89z" fill="#A4AFC1"/><path d="M60.25 98.056h52.5v5.833h-52.5v-5.833zM31.084 103.889a2.895 2.895 0 01-2.061-.856 2.918 2.918 0 01-.778-2.73l4.239-17.986a2.886 2.886 0 01.777-1.392l53.624-53.624c3.298-3.301 9.07-3.31 12.375 0l5.499 5.5a8.695 8.695 0 012.562 6.186c0 2.337-.91 4.539-2.562 6.188l-53.624 53.62a2.921 2.921 0 01-1.392.777l-17.987 4.239a2.832 2.832 0 01-.672.078zM37.97 84.46l-2.967 12.592 12.592-2.967 53.037-53.037a2.895 2.895 0 00.855-2.06c0-.779-.303-1.514-.855-2.062l-5.5-5.503c-1.1-1.1-3.025-1.1-4.121 0L37.97 84.46z" fill="#000"/><path d="M75.105 43.194l4.124-4.125 13.75 13.75-4.125 4.124-13.75-13.75z" fill="#000"/></svg>
